COLOR/action 16/16/text_outer_style.svg

<svg height="16" width="16" xmlns="http://www.w3.org/2000/svg"><g fill-rule="evenodd"><path d="m302 115 2-2v-11h-3l-2 2h-1v-4h16v4h-1l-2-2h-3v11l2 2v1h-8z" fill="#1a7fd4" transform="matrix(.875 0 0 .875 -259.75 -86.5)"/><g stroke-width=".875"><path d="m1 1v.5h14v-.5zm5.25 11.375-1.75 1.75v.5l1.75-1.75zm3.5 0v.5l1.75 1.75v-.5z" fill="#fff" opacity=".3"/><path d="m3.625 2.25-1.75 1.75h-.875v.5h.875l1.75-1.75h2.625v-.5zm6.125 0v.5h2.625l1.75 1.75h.875v-.5h-.875l-1.75-1.75zm-5.25 12.25v.5h7v-.5z" opacity=".2"/></g></g></svg>

<?xml version="1.0" encoding="UTF-8" standalone="no"?>
<svg
   xmlns:dc="http://purl.org/dc/elements/1.1/"
   xmlns:cc="http://creativecommons.org/ns#"
   xmlns:rdf="http://www.w3.org/1999/02/22-rdf-syntax-ns#"
   xmlns:svg="http://www.w3.org/2000/svg"
   xmlns="http://www.w3.org/2000/svg"
   xmlns:sodipodi="http://sodipodi.sourceforge.net/DTD/sodipodi-0.dtd"
   xmlns:inkscape="http://www.inkscape.org/namespaces/inkscape"
   height="16"
   width="16"
   version="1.1"
   id="svg4"
   sodipodi:docname="text_outer_style.svg"
   inkscape:version="0.92.4 (5da689c313, 2019-01-14)">
  <metadata
     id="metadata10">
    <rdf:RDF>
      <cc:Work
         rdf:about="">
        <dc:format>image/svg+xml</dc:format>
        <dc:type
           rdf:resource="http://purl.org/dc/dcmitype/StillImage" />
      </cc:Work>
    </rdf:RDF>
  </metadata>
  <defs
     id="defs8" />
  <sodipodi:namedview
     pagecolor="#ffffff"
     bordercolor="#666666"
     borderopacity="1"
     objecttolerance="10"
     gridtolerance="10"
     guidetolerance="10"
     inkscape:pageopacity="0"
     inkscape:pageshadow="2"
     inkscape:window-width="1920"
     inkscape:window-height="1016"
     id="namedview6"
     showgrid="false"
     inkscape:zoom="14.75"
     inkscape:cx="8"
     inkscape:cy="8"
     inkscape:window-x="0"
     inkscape:window-y="27"
     inkscape:window-maximized="1"
     inkscape:current-layer="svg4" />
  <path
     d="m302 115 2-2v-11h-3l-2 2h-1v-4h16v4h-1l-2-2h-3v11l2 2v1h-8z"
     fill="#1a7fd4"
     fill-rule="evenodd"
     transform="matrix(.875 0 0 .875 -259.75 -86.5)"
     id="path2" />
  <path
     style="fill:#ffffff;fill-rule:evenodd;stroke-width:0.875;fill-opacity:1;opacity:0.3"
     d="M 1 1 L 1 1.5 L 15 1.5 L 15 1 L 1 1 z M 6.25 12.375 L 4.5 14.125 L 4.5 14.625 L 6.25 12.875 L 6.25 12.375 z M 9.75 12.375 L 9.75 12.875 L 11.5 14.625 L 11.5 14.125 L 9.75 12.375 z "
     id="path817" />
  <path
     style="fill:#000000;fill-rule:evenodd;stroke-width:0.875;fill-opacity:1;opacity:0.2"
     d="M 3.625 2.25 L 1.875 4 L 1 4 L 1 4.5 L 1.875 4.5 L 3.625 2.75 L 6.25 2.75 L 6.25 2.25 L 3.625 2.25 z M 9.75 2.25 L 9.75 2.75 L 12.375 2.75 L 14.125 4.5 L 15 4.5 L 15 4 L 14.125 4 L 12.375 2.25 L 9.75 2.25 z M 4.5 14.5 L 4.5 15 L 11.5 15 L 11.5 14.5 L 4.5 14.5 z "
     id="path822" />
</svg>
